X:1424
T:"Sleepy Maggie"      (reel)     1424
C:after Sg't J. O'Neill
N:ADDED REPEAT AT BAR 13 - OBVIOUS TYPO IN BOOK
B:O'Neill's Music Of Ireland (The 1850) Lyon & Healy, Chicago, 1903 edition
Z:FROM O'NEILL'S TO NOTEWORTHY, FROM NOTEWORTHY TO ABC, MIDI AND .TXT BY VINCE
BRENNAN July 2003 (HTTP://WWW.SOSYOURMOM.COM)
I:abc2nwc
M:C|
L:1/8
K:D
f2(de) fBde| TRf2(df) eAce|{g}f2(de) fBde|fgaf eAce:|
fBdB fBde|fBdB eAce|fBdB eBde|f^gaf eAce|
fBdB fBde|fBdB eAce|dcBc defg|abaf eAce
|:fBbB fBde|fBbB aAce|fBbB aB^gB|fB^gB aAde:|


